packages/kaspersky-hexa-ui-icons/src/iconsSVGs/28x20/FlagMk.svg

<svg width="28" height="20" viewBox="0 0 28 20" fill="none" xmlns="http://www.w3.org/2000/svg">
<g clip-path="url(#clip0_5138_1430)">
<rect width="28" height="20" rx="2" fill="white"/>
<mask id="mask0_5138_1430" style="mask-type:luminance" maskUnits="userSpaceOnUse" x="0" y="0" width="28" height="20">
<rect width="28" height="20" rx="2" fill="white"/>
</mask>
<g mask="url(#mask0_5138_1430)">
<rect width="28" height="20" fill="#E81B26"/>
<circle cx="14" cy="10" r="3.33333" fill="#FFE94F"/>
<path fill-rule="evenodd" clip-rule="evenodd" d="M10.2081 7.27926C10.4094 6.99919 10.641 6.74233 10.898 6.51347L1.96166 -3.53064L-0.714867 -0.558063L10.2081 7.27926ZM10.898 13.4865C10.641 13.2577 10.4094 13.0008 10.2081 12.7207L-0.714867 20.5581L1.96166 23.5306L10.898 13.4865ZM13.0846 14.5769L12 20H16L14.9154 14.5769C14.6194 14.6358 14.3133 14.6667 14 14.6667C13.6867 14.6667 13.3806 14.6358 13.0846 14.5769ZM17.7919 12.7207C17.5906 13.0008 17.359 13.2577 17.102 13.4865L26.0383 23.5306L28.7149 20.5581L17.7919 12.7207ZM9.37965 10.66C9.34912 10.4444 9.33333 10.2241 9.33333 10C9.33333 9.77594 9.34912 9.55558 9.37965 9.33995L1.43051e-06 8V12L9.37965 10.66ZM13.0846 5.42308L12 0H16L14.9154 5.42308C14.6194 5.36421 14.3133 5.33333 14 5.33333C13.6867 5.33333 13.3806 5.36421 13.0846 5.42308ZM18.6203 9.33995C18.6509 9.55558 18.6667 9.77594 18.6667 10C18.6667 10.2241 18.6509 10.4444 18.6203 10.66L28 12V8L18.6203 9.33995ZM17.7919 7.27926C17.5906 6.99919 17.359 6.74233 17.102 6.51347L26.0383 -3.53064L28.7149 -0.558063L17.7919 7.27926Z" fill="#FFE94F"/>
</g>
</g>
<defs>
<clipPath id="clip0_5138_1430">
<rect width="28" height="20" fill="white"/>
</clipPath>
</defs>
</svg>

<svg xmlns="http://www.w3.org/2000/svg" width="28" height="20" fill="none" viewBox="0 0 28 20"><g clip-path="url(#a)"><rect width="28" height="20" fill="#fff" rx="2"/><mask id="b" width="28" height="20" x="0" y="0" maskUnits="userSpaceOnUse" style="mask-type:luminance"><rect width="28" height="20" fill="#fff" rx="2"/></mask><g mask="url(#b)"><path fill="#e81b26" d="M0 0h28v20H0z"/><circle cx="14" cy="10" r="3" fill="#ffe94f"/><path fill="#ffe94f" fill-rule="evenodd" d="M10.2081 7.2793a4.7 4.7 0 0 1 .6899-.7658L1.9617-3.5306-.715-.5581zm.6899 6.2072a4.7 4.7 0 0 1-.6899-.7658l-10.923 7.8374 2.6766 2.9725zm2.1866 1.0904L12 20h4l-1.0846-5.4231a4.7 4.7 0 0 1-.9154.0898 4.7 4.7 0 0 1-.9154-.0898m4.7073-1.8562a4.7 4.7 0 0 1-.6899.7658l8.9363 10.0441 2.6766-2.9725zM9.3797 10.66a4.7 4.7 0 0 1-.0464-.66c0-.224.0158-.4444.0464-.66L0 8v4zm3.7049-5.237L12 0h4l-1.0846 5.423A4.7 4.7 0 0 0 14 5.3334c-.3133 0-.6194.031-.9154.0898m5.5357 3.917c.0306.2156.0464.436.0464.66s-.0158.4444-.0464.66L28 12V8zm-.8284-2.0607a4.7 4.7 0 0 0-.6899-.7658l8.9363-10.0441 2.6766 2.9725z" clip-rule="evenodd"/></g></g><defs><clipPath id="a"><path fill="#fff" d="M0 0h28v20H0z"/></clipPath></defs></svg>
